X:1
T:Title
%%score ( 1 2 ) 3
L:1/8
Q:1/4=98
M:4/4
K:Eb
V:1 treble nm="Grand Piano, Soprano"
V:2 treble 
V:3 bass nm="Choir Pad, Mercy for All"
V:1
 E>[EF] [EG]2 [EG]>[FA] [GB]2 | [Ge][Bd] [Ac]2 [Ae]>[Ac] [GB]2 | E>[EF] [EG]2 [EG]>[FA] [GB]2 | %3
w: By~G.~P.~Benjamin * * * * *|||
 [Ge]2 [Fd]2 [Fd]>[Ec] [DB]2 | E>[EF] [EG]2 [EG]>[FA] [GB]2 | z4 z2 d2- | d2 z2 z4 | %7
w: ||||
 [Af]>[Af] [Ge]2 [Fd]>[Ad] [Ge]2- | [Ge]2 [GB]2 [EG]>[GB] [Ge]2- | [Ge]2 [Ae]2 [Ac]>[Ae] [GB]2- | %10
w: |||
 [GB]2 [GB][GB] [EG][FA] [GB]2 | [Ge][Ge] [Fd]2 [Fd]>[Ec] [DB]2- | [DB]2 [GB]2 [EG]>[GB] [Ge]2- | %13
w: |||
 [Ge]2 [Ae]2 [Ac]>[Ae] [GB]2- | [GB]2 [GB][EG] [DA][EB] [Ec]2 | [Af]>[Af] [Ge]2 [Fd]>[Ad] [Ge]2- | %16
w: |||
 [Ge]6 z2 |] %17
w: |
V:2
 x8 | x8 | x8 | x8 | x8 | [Ge][Bd] [Ac]2 [Ff]>[Fe] F2 | A2 [Ge][EG] [DA][EB] [Ec]2 | x8 | x8 | x8 | %10
 x8 | x8 | x8 | x8 | x8 | x8 | x8 |] %17
V:3
 [E,G,]>[E,A,] [E,B,]2 [E,B,]>[E,B,] [E,B,]2 | [E,B,][G,E] [A,E]2 [A,C]>[A,E] [E,E]2 | %2
 [E,G,]>[E,A,] [E,B,]2 [E,B,]>[E,B,] [E,E]2 | [E,B,]2 [F,B,]2 [F,=A,]>[F,A,] [B,,B,]2 | %4
 [E,G,]>[E,=A,] [E,B,]2 [E,B,]>[E,B,] [E,B,]2 | [E,B,][G,E] [A,E]2 [=A,C]>[A,C] B,2- | %6
 B,2 [E,B,][E,B,] [F,B,][G,B,] A,2 | [F,C]>[F,C] B,2 [B,,B,]>[B,,B,] [E,B,]2- | %8
 [E,B,]2 [E,E]2 [E,B,]>[E,B,] [E,B,]2- | [E,B,]2 [A,C]2 [A,E]>[A,C] [E,B,]2- | %10
 [E,B,]2 [E,B,][E,B,] [E,B,][E,B,] [E,B,]2 | [E,B,][E,B,] [F,B,]2 [F,=A,]>[F,A,] [B,,B,]2- | %12
 [B,,B,]2 [E,B,]2 [E,B,]>[E,B,] [E,B,]2- | [E,B,]2 [A,C]2 [A,E]>[A,C] [E,B,]2- | %14
 [E,B,]2 [E,E][E,B,] [F,B,][G,B,] A,2 | [F,C]>[F,C] B,2 [B,,B,]>[B,,B,] [E,B,]2- | [E,B,]6 z2 |] %17

